storage/app/icons/phosphoricons/thin/battery-vertical-low-thin.svg

<svg xmlns="http://www.w3.org/2000/svg" fill="currentColor" viewBox="0 0 256 256"><path d="M92 8a4 4 0 0 1 4-4h64a4 4 0 0 1 0 8H96a4 4 0 0 1-4-4m104 48v168a20 20 0 0 1-20 20H80a20 20 0 0 1-20-20V56a20 20 0 0 1 20-20h96a20 20 0 0 1 20 20m-8 0a12 12 0 0 0-12-12H80a12 12 0 0 0-12 12v168a12 12 0 0 0 12 12h96a12 12 0 0 0 12-12Zm-28 140H96a4 4 0 0 0 0 8h64a4 4 0 0 0 0-8"/></svg>

<svg xmlns="http://www.w3.org/2000/svg" viewBox="0 0 256 256" fill="currentColor"><path d="M92,8a4,4,0,0,1,4-4h64a4,4,0,0,1,0,8H96A4,4,0,0,1,92,8ZM196,56V224a20,20,0,0,1-20,20H80a20,20,0,0,1-20-20V56A20,20,0,0,1,80,36h96A20,20,0,0,1,196,56Zm-8,0a12,12,0,0,0-12-12H80A12,12,0,0,0,68,56V224a12,12,0,0,0,12,12h96a12,12,0,0,0,12-12ZM160,196H96a4,4,0,0,0,0,8h64a4,4,0,0,0,0-8Z"/></svg>
